!!!COM: Hugo Wolf
!!!CNT: Deutscher
!!!TXO: Deutsche 
!!!OTL: Seemanns Abschied
!!!ODT: 1888/09/21
!!!ONM: No. 17
!!!LYR: Joseph von Eichendorff
!!!ENC: Brian Bice
!!!YOR: 45 Songs on Poems of Goethe and Eichendorff, Dover Publications, 1995
!!NB: Vocal melody and text only encoded.
**kern	**silbe
*clefG2	*
*k[b-]	*
*M4/4	*
=4	=4
2r	.
4r	.
8r	.
{8cc	{A-
=5	=5
4.dd-	-de,
8dd-	mein
4cc	Schatz,
8r	.
8cc	du
=6	=6
4dd-	mocht'st
4ff	mich
4cc	nicht,
8r	.
8cc	ich
=7	=7
4b-	war
4ddn	dir
4ee	zu
4ff	ge-
=8	=8
2ee	-rin-
4ee}	-ge.}
4r	.
=9	=9
{4dd-	{Einst
8dd-	wan-
8ee-	-delst
4.dd-	du
8dd-	bei
=10	=10
4.dd-	Mon-
8ee-	-den-
4.een	-licht
8een	und
=11	=11
4ff#	ho2rst
4dd	ein
(8a	su2-
8bn)	|
(8a	-sses
8bn)	|
=12	=12
(4.cc#	Klin-
8dd#)	|
4cc#}	-gen:}
4r	.
=13	=13
2r	.
4r	.
{4c#	{Ein
=14	=14
4.d	Meer-
8fn	-wieb
4a	singt,
4bn	die
=15	=15
4.cc#	Nacht
8cc#	ist
4cc#	lau,
4c#	die
=16	=16
4.d	stil-
8fn	-len
4a	Wol-
4bn	-ken
=17	=17
2ccn	wan-
4ccn}	-dern,}
{4ccn	{da
=18	=18
4.ff	denk'
8ff	an
4ff	mich,
8r	.
8cc	's ist
=19	=19
(8f	mei-
8b-)	|
(8dd	-ne
8ff)	|
[2aa	Frau,
=20	=20
8aa]}	|}
8r	.
{4ff	{nun
8aa	such'
8ff	dir
8a	ei-
8b-	-nen
=21	=21
(4cc	an-
4dd	|
4.ee	|
8ff)	|
=22	=22
4ff}	-dern!}
4r	.
2r	.
=25	=25
2r	.
4r	.
8r	.
{8cc	{A-
=26	=26
4.dd-	-de,
8dd-	ihr
4cc	Lands-
4f	-knecht',
=27	=27
4dd-	Mus-
4ff	-ke-
4cc	-tier'!
8r	.
8cc	wir
=28	=28
4b-	zieh'n
4ddn	auf
4ee	wil-
4ff	-dem
=29	=29
4ee	Ros-
4e}	-se,}
4r	.
{4cc#	{das
=30	=30
4.cc#	ba2umt
8dd#	und
4.cc#	u2-
8dd#	-ber-
=31	=31
4cc#	-schla2gt
4dd#	sich
4ee	schier
4ee#	vor
=32	=32
4ff#	man-
4dd#	-chem
(8a	Fel-
8bn)	|
(8a	-sen-
8bn)	|
=33	=33
2.cc#	-schlos-
4c#}	-se.}
=34	=34
2r	.
4r	.
{4f#	{Der
=35	=35
4.fn	Was-
8a	-ser-
4ccn	-mann
4dd	bei
=36	=36
4.ee	Blit-
8ee	-zes-
4ee	schein
4e	taucht
=37	=37
4.f	auf
8a	in
4ccn	dunk-
4dd	-len
=38	=38
2ee	Na2ch-
4ee}	-ten,}
8r	.
{8cc	{der
=39	=39
4.ff	Hal-
8ff	-fisch
8ff	schnappt,
8r	.
8r	.
8cc	die
=40	=40
4.ff	Mo2-
8ff	-ven
[2ff	schrei'n,
=41	=41
4.ff]}	|}
8r	.
8r	.
{8aa	{das
8a	ist
8b-	ein
=42	=42
8cc	lu-
8dd	-stig
2.eeT	Fech-
=43	=43
4ff}	-ten!}
4r	.
2r	.
=47	=47
{4dd-	{Streckt
8dd-	nur
8dd-	auf
4cc	eu-
4f	-rer
=48	=48
([4dd-	Ba2-
12dd-]	|
12ee-)	|
12dd-	-ren-
4.cc	-haut
8cc	da-
=49	=49
4.ddn	-heim
8ddn	die
4en	fau-
8f	-len
8g	|
=50	=50
2a-	Glie-
4g	-der,}
4c	Gott
=51	=51
4.d-	Va-
8f	-ter
4a-	aus
4a-	dem
=52	=52
4.b-	Fen-
8b-	-ster
2cc	schaut,
=53	=53
4cc	schickt
8cc	sei-
8cc	-ne
4dd	Su2nd-
4ff	-flut
=54	=54
2ff	wie-
4ee}	-der,}
4r	.
=55	=55
{4cc	{Feld-
8f	-we-
8a	-bel,
4cc	Rei-
4cc	-ter,
=56	=56
4dd	Mus-
4ff	-ke-
4cc#	-tier,
8r	.
8cc#	sie
=57	=57
4.dd	mu2s-
8dd	-sen
(4ff	all'
8ee)	|
8dd	er-
=58	=58
2ee	-sau-
4ee}	-fen,}
8r	.
{8ee	{der-
=59	=59
4gg	-weil
4ff	mit
4ee	fri-
4dd	-schem
=60	=60
4cc	Win-
4ff	-de
4a	wir
8f	im
8g	|
=61	=61
8a	Pa-
8b-	|
8cc	-ra-
8dd	|
4ee	-dies
4ff	ein-
=62	=62
(2aa	-lau-
2gg)	|
=63	=63
4ff}	-fen.}
4r	.
2r	.
*-	*-
